X: 31251
T: Paddy Fahy's
R: jig
M: 6/8
K: Dmajor
dcd edc|dAF DFA|GFG EFG|ABc dfe|
d2 f edc|dAF DFA|G2 G EAG|F/G/AF DFA:|
dcd a^ga|fb^g afd|Bdg gfg|Bdg bge|
d2 d a^ga|fb^g a2 b|1 afd gec|dAF DFA:|2 afd Bec|dAF D||

